X:1
T:Magdalen College, 88.68.86
T:Magdalen College, 88.68.86
T:William Hayes, 1774
T:Public Domain Courtesy of the Cyber Hymnal™
C:William Hayes, 1774
Z:Public Domain
Z:Courtesy of the Cyber Hymnal™
%%score ( 1 2 ) ( 3 4 )
L:1/8
Q:1/4=108
M:4/4
K:D
V:1 treble 
V:2 treble 
V:3 bass 
V:4 bass 
V:1
 [A,D]2 | [DF]2 [EA]2 [Dd]2 [DB]2 | G3 z G [DF]2 [CE]2 | F2 z [DA]2 [DB]2 x | %4
 [Ec]2 [Fd]2 [Ae]2 [EA]2 | [Dd]2 [Ec]2 B2 z x3 | [CA]6 [Ec]2 | [Ec]2 [Ec]2 d3 z d | %8
 [Gd]2 [A=c]2 [GB]2 [GB]2 | [GB]2 [GB]2 [Ge]3 [Fd] | [Ec]2 [Fd]2 [Ec]2 [Dd]2 | %11
 G2 [DF]2 [DE]2 [CE]2 | D6 |] %13
V:2
 x2 | x8 | D2 C2 x5 | D3 (G2 C) x2 | x8 | x4 E3 B2 D | x8 | x4 D2 F2 x | x8 | x8 | x8 | (B,C) x6 | %12
 D6 |] %13
V:3
 [D,F,]2 | [D,A,]2 [C,A,]2 [B,,F,]2 [G,B,]2 | [E,B,]2 [A,,A,]2 [D,A,]2 [A,,A,]2 x | %3
 [D,A,]2 [E,A,]2 [F,A,]2 G,2 | [E,G,]2 [D,D]2 [A,,C]2 [C,A,]2 | (F,^G,) A,2 [E,A,]2 [E,G,]2 x2 | %6
 [A,,A,]6 A,2 | A,3 G, [F,A,]2 [D,A,]2 x | [E,G,]2 [D,D]2 [G,D]2 [G,D]2 | %9
 [G,D]2 E2 [C,A,]3 [D,A,] | A,2 [D,A,]2 A,2 [F,A,]2 | [E,G,]2 [D,A,]2 [A,,A,]2 (A,G,) | [D,F,]6 |] %13
V:4
 x2 | x8 | x9 | x6 G,2 | x8 | B,,2 (C,D,) x6 | x6 A,2 | A,3 x6 | x8 | x2 (E,D,) x4 | A,2 A,2 x4 | %11
 x6 A,,2 | x6 |] %13

